elusive/iphone-home.svg

<?xml version="1.0" encoding="UTF-8" standalone="no"?>
<!-- Generator: IcoMoon.io -->

<svg
   xmlns:dc="http://purl.org/dc/elements/1.1/"
   xmlns:cc="http://creativecommons.org/ns#"
   xmlns:rdf="http://www.w3.org/1999/02/22-rdf-syntax-ns#"
   xmlns:svg="http://www.w3.org/2000/svg"
   xmlns="http://www.w3.org/2000/svg"
   xmlns:sodipodi="http://sodipodi.sourceforge.net/DTD/sodipodi-0.dtd"
   xmlns:inkscape="http://www.inkscape.org/namespaces/inkscape"
   id="svg2"
   version="1.1"
   data-tags="remove-circle, cancel, close, remove, delete"
   height="1200"
   width="1200"
   data-du=""
   viewBox="0 0 1200 1200"
   inkscape:version="0.48.4 r9939"
   sodipodi:docname="iphone-home.svg">
  <defs
     id="defs32" />
  <sodipodi:namedview
     pagecolor="#ffffff"
     bordercolor="#666666"
     borderopacity="1"
     objecttolerance="10"
     gridtolerance="10"
     guidetolerance="10"
     inkscape:pageopacity="0"
     inkscape:pageshadow="2"
     inkscape:window-width="1535"
     inkscape:window-height="876"
     id="namedview30"
     showgrid="false"
     inkscape:zoom="0.26339286"
     inkscape:cx="395.94967"
     inkscape:cy="190.70572"
     inkscape:window-x="65"
     inkscape:window-y="24"
     inkscape:window-maximized="1"
     inkscape:current-layer="svg2" />
  <metadata
     id="metadata62">
    <rdf:RDF>
      <cc:Work
         rdf:about="">
        <dc:format>image/svg+xml</dc:format>
        <dc:type
           rdf:resource="http://purl.org/dc/dcmitype/StillImage" />
        <dc:title />
      </cc:Work>
    </rdf:RDF>
  </metadata>
  <path
     id="path12770"
     d="M 600,0 C 268.62914,0 0,268.62914 0,600 c 0,331.37086 268.62914,600 600,600 331.37086,0 600,-268.62914 600,-600 C 1200,268.62914 931.37086,0 600,0 z m -207.78797,342.84657 415.50282,0 c 27.96562,1.89374 49.06735,22.24265 49.43858,48.04686 l 0,416.89454 c -1.98234,29.05898 -23.12202,49.0118 -49.43858,49.36546 l -415.50282,0 C 363.17226,855.17249 343.2,834.07899 342.84657,807.78797 l 0,-416.89454 c 1.60218,-27.82992 24.77132,-47.7164 49.36546,-48.04686 z m 69.94617,94.62889 c -14.91116,0.37008 -24.52641,11.84602 -24.68274,24.7561 l 0,274.21875 c 0.38649,14.88539 11.80805,24.59977 24.68274,24.75563 l 275.61024,0 c 14.91797,-0.38672 24.60211,-11.85235 24.7561,-24.75563 l 0,-274.21875 c -0.36564,-14.94539 -11.81603,-24.60164 -24.7561,-24.7561 l -275.61024,0 z"
     inkscape:connector-curvature="0" />
</svg>

<?xml version="1.0" encoding="utf-8"?>
<!-- Generator: Adobe Illustrator 16.0.0, SVG Export Plug-In . SVG Version: 6.00 Build 0)  -->
<!DOCTYPE svg PUBLIC "-//W3C//DTD SVG 1.1//EN" "http://www.w3.org/Graphics/SVG/1.1/DTD/svg11.dtd">
<svg version="1.1"
	 id="svg2" xmlns:dc="http://purl.org/dc/elements/1.1/" xmlns:cc="http://creativecommons.org/ns#" xmlns:rdf="http://www.w3.org/1999/02/22-rdf-syntax-ns#" xmlns:svg="http://www.w3.org/2000/svg" xmlns:sodipodi="http://sodipodi.sourceforge.net/DTD/sodipodi-0.dtd" xmlns:inkscape="http://www.inkscape.org/namespaces/inkscape" sodipodi:docname="iphone-home.svg" inkscape:version="0.48.4 r9939"
	 xmlns="http://www.w3.org/2000/svg" xmlns:xlink="http://www.w3.org/1999/xlink" x="0px" y="0px" width="1200px" height="1200px"
	 viewBox="0 0 1200 1200" enable-background="new 0 0 1200 1200" xml:space="preserve">
<sodipodi:namedview  inkscape:cy="190.70572" inkscape:cx="395.94967" inkscape:zoom="0.26339286" showgrid="false" id="namedview30" guidetolerance="10" gridtolerance="10" objecttolerance="10" borderopacity="1" bordercolor="#666666" pagecolor="#ffffff" inkscape:current-layer="svg2" inkscape:window-maximized="1" inkscape:window-y="24" inkscape:window-height="876" inkscape:window-width="1535" inkscape:pageshadow="2" inkscape:pageopacity="0" inkscape:window-x="65">
	</sodipodi:namedview>
<path id="path12770" inkscape:connector-curvature="0" d="M600,0C268.629,0,0,268.629,0,600s268.629,600,600,600
	s600-268.629,600-600S931.371,0,600,0z M392.212,342.847h415.503c27.966,1.894,49.067,22.242,49.438,48.047v416.895
	c-1.982,29.059-23.122,49.012-49.438,49.365H392.212c-29.04-1.98-49.012-23.074-49.365-49.365V390.894
	C344.449,363.063,367.618,343.177,392.212,342.847L392.212,342.847z M462.158,437.476c-14.911,0.37-24.526,11.846-24.683,24.756
	V736.45c0.387,14.886,11.808,24.6,24.683,24.756h275.61c14.918-0.387,24.602-11.853,24.756-24.756V462.231
	c-0.365-14.945-11.815-24.602-24.756-24.756H462.158z"/>
</svg>
